X:101
T:Drops of Brandy
M:9/8
L:1/8
R:Slip Jig
K:Dmix
d2B BAB BAB | d2B BAB cBA | d2B BAB BAB | cBc A2B cBA :|
|: GBd gdB gdB | GBd gdB cBA |[1 GBd gdB gdB | cBc A2B cBA :|
|[2 GBd gba g2B | cBc A2B cBA |

